web/themes/custom/accesio/src/icon/svg/logo-twitch.svg

<?xml version="1.0" encoding="utf-8"?>
<!-- Generator: Adobe Illustrator 16.2.1, SVG Export Plug-In . SVG Version: 6.00 Build 0)  -->
<!DOCTYPE svg PUBLIC "-//W3C//DTD SVG 1.1//EN" "http://www.w3.org/Graphics/SVG/1.1/DTD/svg11.dtd">
<svg version="1.1" id="Layer_1" xmlns="http://www.w3.org/2000/svg" xmlns:xlink="http://www.w3.org/1999/xlink" x="0px" y="0px"
	 width="512px" height="512px" viewBox="0 0 512 512" enable-background="new 0 0 512 512" xml:space="preserve">
<g>
	<g>
		<path d="M80,32l-32,80v304h96v64h64l64-64h80l112-112V32H80z M416,288l-64,64h-96.001L192,416v-64h-80V80h304V288z"/>
	</g>
	<rect x="320" y="143" width="48" height="129"/>
	<rect x="208" y="143" width="48" height="129"/>
</g>
</svg>

<svg xmlns="http://www.w3.org/2000/svg" width="512" height="512" viewBox="0 0 512 512"><title>ionicons-v5_logos</title><path d="M80,32,48,112V416h96v64h64l64-64h80L464,304V32ZM416,288l-64,64H256l-64,64V352H112V80H416Z"/><rect x="320" y="143" width="48" height="129"/><rect x="208" y="143" width="48" height="129"/></svg>
